v/0.4.11/design-resources/icons/wf_icons/template-child.svg

<?xml version="1.0" encoding="utf-8"?>
<!-- Generated by IcoMoon.io -->
<!DOCTYPE svg PUBLIC "-//W3C//DTD SVG 1.1//EN" "http://www.w3.org/Graphics/SVG/1.1/DTD/svg11.dtd">
<svg version="1.1" xmlns="http://www.w3.org/2000/svg" xmlns:xlink="http://www.w3.org/1999/xlink" width="512" height="512" viewBox="0 0 512 512">
<g>
</g>
	<path d="M384 480v-448h-352v448zM224 96h128v96h-128v-96zM64 96h128v96h-128v-96zM192 224v96h-128v-96h128zM192 448h-128v-96h128v96zM352 448h-128v-96h128v96zM224 320v-96h128v96h-128z" fill="#595959" />
</svg>

<svg xmlns="http://www.w3.org/2000/svg" width="512" height="512" viewBox="0 0 512 512"><path stroke="#449FDB" d="M0 0"/><path d="M384 480V32H32v448zM224 96h128v96H224V96zM64 96h128v96H64V96zm128 128v96H64v-96h128zm0 224H64v-96h128v96zm160 0H224v-96h128v96zM224 320v-96h128v96H224z" fill="#595959"/></svg>
